X: 032
T: The Parks of Killburnie
R: reel
B: Robert Bremner "A Collection of Scots Reels or Country Dances" p.3 #2
S: http://imslp.org/wiki/A_Collection_of_Scots_Reels_or_Country_Dances_(Bremner,_Robert)
Z: 2013 John Chambers <jc:trillian.mit.edu>
M: C|
L: 1/8
K: F
% - - - - - - - - - - - - - - - - - - - - - - - - -
V: 1
F |\
(A/B/c) cf (a/g/f/e/ f)d | cAdA BGGB |\
(A/B/c) cf (a/g/f/e/ f)d | cABG F/F/F F :|
|: c |\
(A/B/c) Fc dBfd | cAaf gGGc |\
(A/B/c) Fc dBfd | cABG F/F/F F :|
% - - - - - - - - - - - - - - - - - - - - - - - - -
V: 2 clef=bass middle=d
z |\
f2f2 f2f2 | f2f2 g2g2 |\
f2f2 f2f2 | c2c2 F2F :|
|: z |\
f2f2 f2f2 | f2f2 g2g2 |\
f2f2 f2f2 | c2c2 F2F :|
% - - - - - - - - - - - - - - - - - - - - - - - - -

%%sep 1 1 500
%%sep 1 1 500
